src/pos-icons/alpha-g-circle.svg

<svg height="24" viewBox="0 0 24 24" width="24" xmlns="http://www.w3.org/2000/svg"><path d="m12 2a10 10 0 0 1 10 10 10 10 0 0 1 -10 10 10 10 0 0 1 -10-10 10 10 0 0 1 10-10m-1 5a2 2 0 0 0 -2 2v6a2 2 0 0 0 2 2h2a2 2 0 0 0 2-2v-4h-2v4h-2v-6h4v-2z"/></svg>

<?xml version="1.0" encoding="UTF-8"?><!DOCTYPE svg PUBLIC "-//W3C//DTD SVG 1.1//EN" "http://www.w3.org/Graphics/SVG/1.1/DTD/svg11.dtd"><svg xmlns="http://www.w3.org/2000/svg" xmlns:xlink="http://www.w3.org/1999/xlink" version="1.1" id="mdi-alpha-g-circle" width="24" height="24" viewBox="0 0 24 24"><path d="M12,2A10,10 0 0,1 22,12A10,10 0 0,1 12,22A10,10 0 0,1 2,12A10,10 0 0,1 12,2M11,7A2,2 0 0,0 9,9V15A2,2 0 0,0 11,17H13A2,2 0 0,0 15,15V11H13V15H11V9H15V7H11Z" /></svg>
